Hatter-kde-dark/actions/22/accept_signal.svg

<svg xmlns="http://www.w3.org/2000/svg" viewBox="0 0 22 22">
  <defs id="defs3051">
    <style type="text/css" id="current-color-scheme">
      .ColorScheme-Text {
        color:#dedede;
      }
      </style>
  </defs>
 <path 
     style="fill:currentColor;fill-opacity:1;stroke:none" 
     d="M 3.03125 3 L 3 3.0175781 L 3 3.9003906 L 7.7402344 11 L 3 18.101562 L 3 18.984375 L 3.0273438 19 L 3.3007812 19 L 3.6601562 19 L 8 19 L 8.3007812 19 L 18 19 L 19 19 L 19 4 L 19 3 L 8.3007812 3 L 3.65625 3 L 3.03125 3 z M 4.3242188 4 L 8.3007812 4 L 18 4 L 18 18 L 8.3007812 18 L 8 18 L 4.328125 18 L 9 11 L 4.3242188 4 z " transform="matrix(1 0 0 1 0 0)"
	 class="ColorScheme-Text"
     />
</svg>

<?xml version="1.0" encoding="UTF-8"?>
<svg viewBox="0 0 22 22" xmlns="http://www.w3.org/2000/svg">
 <defs id="defs3051">
  <style id="current-color-scheme" type="text/css">.ColorScheme-Text {
        color:#dedede;
      }</style>
 </defs>
 <path class="ColorScheme-Text" d="m3.0312 3-0.03125 0.017578v0.88281l4.7402 7.0996-4.7402 7.1016v0.88281l0.027344 0.015625h0.27344 0.35938 4.3398 0.30078 9.6992 1v-15-1h-10.699-4.6445-0.625zm1.293 1h3.9766 9.6992v14h-9.6992-0.30078-3.6719l4.6719-7-4.6758-7z" fill="currentColor"/>
</svg>
